synths/sMKR.svg

<svg width="480" height="480" viewBox="0 0 480 480" fill="none" xmlns="http://www.w3.org/2000/svg"><mask id="mask0-352475" maskUnits="userSpaceOnUse" x="0" y="0" width="480" height="480"><circle cx="240" cy="240" r="240" fill="url(#paint0_linear-393118)"/></mask><g mask="url(#mask0-352475)"><circle cx="240" cy="240" r="240" fill="#31D8A4"/><circle cx="240" cy="240" r="208" fill="#fff"/></g><circle cx="240" cy="240" r="184" fill="#0E052F"/><path d="M240 424c101.62 0 184-82.38 184-184S341.62 56 240 56 56 138.38 56 240s82.38 184 184 184z" fill="#1ABC9C"/><path d="M146.137 194.644V314.75H125v-161l111.642 80.811v80.189h-21.137v-69.885l-69.368-50.221zm118.358 50.221v69.885h-21.137v-80.189L355 153.75v161h-21.137V194.644l-69.368 50.221z" fill="#fff"/><defs><linearGradient id="paint0_linear-393118" x1="240" y1="0" x2="240" y2="701.818" gradientUnits="userSpaceOnUse"><stop stop-color="#08021E"/><stop offset="1" stop-color="#1F0777"/></linearGradient></defs></svg>

<svg width="480" height="480" viewBox="0 0 480 480" fill="none" xmlns="http://www.w3.org/2000/svg">
<mask id="mask0-352475" mask-type="alpha" maskUnits="userSpaceOnUse" x="0" y="0" width="480" height="480">
<circle cx="240" cy="240" r="240" fill="url(#paint0_linear-393118)"/>
</mask>
<g mask="url(#mask0-352475)">
<circle cx="240" cy="240" r="240" fill="#31D8A4"/>
<circle cx="240" cy="240" r="208" fill="white"/>
</g>
<circle cx="240" cy="240" r="184" fill="#0E052F"/>
<path d="M240 424C341.62 424 424 341.62 424 240C424 138.38 341.62 56 240 56C138.38 56 56 138.38 56 240C56 341.62 138.38 424 240 424Z" fill="#1ABC9C"/>
<path d="M146.137 194.644V314.75H125V153.75L236.642 234.561V314.75H215.505V244.865L146.137 194.644ZM264.495 244.865V314.75H243.358V234.561L355 153.75V314.75H333.863V194.644L264.495 244.865Z" fill="white"/>
<defs>
<linearGradient id="paint0_linear-393118" x1="240" y1="0" x2="240" y2="701.818" gradientUnits="userSpaceOnUse">
<stop stop-color="#08021E"/>
<stop offset="1" stop-color="#1F0777"/>
</linearGradient>
</defs>
</svg>
